logo/kinto-icon.svg

<?xml version="1.0" encoding="UTF-8"?>
<svg width="256px" height="99px" viewBox="0 0 256 99" version="1.1" xmlns="http://www.w3.org/2000/svg" xmlns:xlink="http://www.w3.org/1999/xlink" preserveAspectRatio="xMidYMid">
    <defs>
        <linearGradient x1="-0.944%" y1="34.58%" x2="100.193%" y2="93.74%" id="linearGradient-1">
            <stop stop-color="#FEEC7F" offset="0%"></stop>
            <stop stop-color="#F3A21B" offset="100%"></stop>
        </linearGradient>
        <linearGradient x1="50%" y1="-26.499%" x2="50%" y2="107.049%" id="linearGradient-2">
            <stop stop-color="#FEEC7F" offset="0%"></stop>
            <stop stop-color="#FEE97B" offset="19%"></stop>
            <stop stop-color="#FCDF6E" offset="39%"></stop>
            <stop stop-color="#FACF58" offset="61%"></stop>
            <stop stop-color="#F6B93A" offset="82%"></stop>
            <stop stop-color="#F3A21B" offset="100%"></stop>
        </linearGradient>
        <linearGradient x1="-31.443%" y1="50%" x2="46.858%" y2="50%" id="linearGradient-3">
            <stop stop-color="#FEEC7F" offset="0%"></stop>
            <stop stop-color="#FDE373" offset="11%"></stop>
            <stop stop-color="#F6B434" offset="71%"></stop>
            <stop stop-color="#F3A21B" offset="100%"></stop>
        </linearGradient>
        <linearGradient x1="50.002%" y1="-9.408%" x2="50.002%" y2="98.339%" id="linearGradient-4">
            <stop stop-color="#FEEC7F" offset="0%"></stop>
            <stop stop-color="#F7BC3F" offset="61%"></stop>
            <stop stop-color="#F3A21B" offset="100%"></stop>
        </linearGradient>
        <linearGradient x1="50%" y1="0.98%" x2="50%" y2="101.601%" id="linearGradient-5">
            <stop stop-color="#F9C32E" offset="0%"></stop>
            <stop stop-color="#F19819" offset="52%"></stop>
            <stop stop-color="#E96C04" offset="100%"></stop>
        </linearGradient>
        <linearGradient x1="-25.306%" y1="50%" x2="74.694%" y2="50%" id="linearGradient-6">
            <stop stop-color="#F7B425" offset="0%"></stop>
            <stop stop-color="#F3A620" offset="6%"></stop>
            <stop stop-color="#EC8816" offset="21%"></stop>
            <stop stop-color="#E6720E" offset="37%"></stop>
            <stop stop-color="#E26208" offset="55%"></stop>
            <stop stop-color="#E05805" offset="74%"></stop>
            <stop stop-color="#DF5504" offset="100%"></stop>
        </linearGradient>
        <linearGradient x1="50%" y1="-34.375%" x2="50%" y2="144.062%" id="linearGradient-7">
            <stop stop-color="#FEEC7F" offset="0%"></stop>
            <stop stop-color="#F7BD40" offset="61%"></stop>
            <stop stop-color="#F3A21B" offset="100%"></stop>
        </linearGradient>
        <linearGradient x1="50.354%" y1="-109.762%" x2="50.354%" y2="69.444%" id="linearGradient-8">
            <stop stop-color="#FEEC7F" offset="0%"></stop>
            <stop stop-color="#FEEA7C" offset="23%"></stop>
            <stop stop-color="#FCE271" offset="42%"></stop>
            <stop stop-color="#FBD560" offset="60%"></stop>
            <stop stop-color="#F8C347" offset="78%"></stop>
            <stop stop-color="#F4AC28" offset="94%"></stop>
            <stop stop-color="#F3A21B" offset="100%"></stop>
        </linearGradient>
        <linearGradient x1="50.006%" y1="7.134%" x2="50.006%" y2="136.776%" id="linearGradient-9">
            <stop stop-color="#F9C32E" offset="0%"></stop>
            <stop stop-color="#F19819" offset="52%"></stop>
            <stop stop-color="#E96C04" offset="100%"></stop>
        </linearGradient>
        <linearGradient x1="75.144%" y1="18.361%" x2="25.511%" y2="69.806%" id="linearGradient-10">
            <stop stop-color="#E66A09" offset="0%"></stop>
            <stop stop-color="#E66A09" offset="100%"></stop>
        </linearGradient>
        <linearGradient x1="50%" y1="-28.81%" x2="50%" y2="101.905%" id="linearGradient-11">
            <stop stop-color="#F7B425" offset="0%"></stop>
            <stop stop-color="#F3A620" offset="6%"></stop>
            <stop stop-color="#EC8816" offset="21%"></stop>
            <stop stop-color="#E6720E" offset="37%"></stop>
            <stop stop-color="#E26208" offset="55%"></stop>
            <stop stop-color="#E05805" offset="74%"></stop>
            <stop stop-color="#DF5504" offset="100%"></stop>
        </linearGradient>
        <linearGradient x1="50.001%" y1="-14.918%" x2="50.001%" y2="65.637%" id="linearGradient-12">
            <stop stop-color="#F7B425" offset="0%"></stop>
            <stop stop-color="#EF961A" offset="35%"></stop>
            <stop stop-color="#DF5504" offset="100%"></stop>
        </linearGradient>
    </defs>
    <g>
        <path d="M107.410513,97.8615898 L58.5320086,97.8615898 C50.9558404,97.6171973 42.5242985,97.006216 35.4369154,95.6620571 C31.8932239,95.0510758 28.5939248,94.195702 25.4168221,93.3403282 C23.8282707,92.8515432 22.3619156,92.4849544 20.8955605,91.9961693 C18.2224194,91.0892556 15.5738956,90.1113391 12.9528036,89.0634591 C11.730841,88.5746741 10.6310746,87.9636928 9.65350454,87.4749077 C7.57616812,86.3751414 5.74322422,85.5197676 4.39906536,84.6643937 C2.93271024,83.8090199 1.8329439,83.0758424 1.09976634,82.5870573 L0,81.8538798 C0,81.8538798 0.36658878,82.0982723 1.2219626,82.5870573 C1.95514016,83.0758424 3.0549065,83.6868237 4.52126162,84.5421975 C5.98761674,85.3975713 7.82056064,86.2529451 9.89789706,87.2305152 C11.9752335,88.2080853 14.4191587,89.1856554 17.1074764,90.0410292 C18.4516353,90.5298142 19.7957941,91.0185993 21.2621492,91.385188 C22.7285044,91.8739731 24.1948595,92.2405619 25.7834109,92.6071506 C28.9605136,93.3403282 32.2598127,94.0735058 35.8035042,94.6844871 C42.768691,95.9064497 50.3448591,96.6396272 57.9210273,96.8840197 C61.4647188,97.1284123 107.410513,97.8615898 107.410513,97.8615898 L107.410513,97.8615898 Z" fill="url(#linearGradient-1)"></path>
        <path d="M256.001165,58.3921978 C256.001165,38.8407962 239.871258,20.0225722 220.686446,20.0225722 C205.900698,20.0225722 189.159811,21.8555161 157.14439,62.5468707 C115.719858,114.84687 94.2133165,89.3078516 92.9913539,87.597104 C96.0462604,93.5847207 102.156073,97.8615898 109.365653,97.8615898 L220.686446,97.8615898 C240.115651,97.8615898 256.001165,77.9435994 256.001165,58.3921978 Z" fill="url(#linearGradient-2)"></path>
        <path d="M109.487849,97.8615898 C99.3455594,97.8615898 91.0362137,89.6744404 91.0362137,79.5321508 C91.0362137,69.3898612 99.4677557,59.7363567 109.365653,59.7363567 C128.794858,59.7363567 131.483176,77.3326181 161.787848,86.0085526 C181.461446,91.6295806 220.564249,97.8615898 220.564249,97.8615898 L109.487849,97.8615898 Z" fill="url(#linearGradient-3)"></path>
        <path d="M220.564249,97.8615898 C216.653969,96.2730384 201.379437,91.2629918 198.813315,74.6443004 C196.247194,57.7812165 206.389483,48.7386933 203.21238,29.3094879 C200.401866,12.2020115 186.104904,3.77046959 171.807942,0.837759352 C164.476166,-0.628595768 156.411213,-0.262006988 148.224063,2.67070325 C125.251167,10.9800489 117.552802,37.1300486 121.829671,55.0928988 C125.373363,69.8786463 140.036914,84.4200012 175.229437,90.6520105 C205.289717,95.9064497 207.733642,96.3952347 220.564249,97.8615898 Z" fill="url(#linearGradient-4)"></path>
        <path d="M198.813315,74.6443004 C196.247194,57.7812165 206.389483,48.7386933 203.21238,29.3094879 C202.82753,27.1979344 202.29674,25.1156049 201.623829,23.0774787 C190.503969,27.476544 176.573596,37.7410299 157.14439,62.4246744 C115.719858,114.84687 94.2133165,89.3078516 92.9913539,87.597104 C96.0462604,93.5847207 102.27827,97.8615898 109.487849,97.8615898 L220.686446,97.8615898 C216.653969,96.2730384 201.379437,91.2629918 198.813315,74.6443004 L198.813315,74.6443004 Z" fill="url(#linearGradient-5)"></path>
        <path d="M126.595325,65.8461697 C131.605372,75.1330855 152.623129,90.1632254 220.564249,97.8615898 C166.797895,90.896403 141.747662,80.7541134 126.595325,65.8461697 Z" fill="url(#linearGradient-6)"></path>
        <path d="M58.6542048,97.8615898 C56.5768684,97.8615898 54.988317,96.1508422 54.988317,94.0735058 C54.988317,91.9961693 56.6990647,90.0410292 58.6542048,90.0410292 C62.5644851,90.0410292 63.1754664,94.3178983 69.2852794,96.0286459 C73.1955598,97.1284123 81.0161204,97.7393936 81.0161204,97.7393936 L58.6542048,97.8615898 L58.6542048,97.8615898 Z" fill="url(#linearGradient-7)"></path>
        <path d="M109.487849,97.8615898 C104.23341,97.8615898 99.2233632,95.4176646 95.8018679,91.8739731 C86.1483633,88.2080853 84.5598119,82.4648611 77.3502326,82.4648611 C73.317756,82.4648611 70.018457,86.3751414 70.018457,90.407618 C70.018457,94.4400945 73.317756,97.8615898 77.3502326,97.8615898 L121.829671,97.8615898 L109.487849,97.8615898 L109.487849,97.8615898 Z" fill="url(#linearGradient-8)"></path>
        <path d="M239.993455,26.7433665 C238.771492,25.7657964 237.427333,24.9104226 236.205371,24.177245 C234.861212,23.4440675 233.394857,22.7108899 231.684109,22.2221049 C228.507006,21.0001423 225.207707,20.389161 222.030604,20.0225722 L220.686446,20.0225722 C214.943221,20.0225722 208.833408,20.2669647 201.623829,23.0774787 C202.357007,25.0326188 202.967988,27.1099553 203.21238,29.3094879 C205.411913,42.7510765 201.135044,51.427011 199.179904,60.9583193 C208.589016,53.3821512 226.674062,53.1377586 236.816352,53.7487399 L237.916118,53.7487399 C239.015885,53.7487399 239.993455,53.6265437 240.848829,53.3821512 C250.746726,50.8160297 251.357707,35.7858897 239.993455,26.7433665 L239.993455,26.7433665 Z" fill="url(#linearGradient-9)"></path>
        <path d="M199.3021,60.836123 C198.446726,64.9907959 198.080138,69.5120575 198.813315,74.6443004 C201.379437,91.2629918 216.409577,95.9064497 220.564249,97.8615898 L220.686446,97.8615898 C227.40724,97.8615898 233.639249,95.4176646 238.893688,91.6295806 C237.671726,90.5298142 231.073128,84.6643937 229.117988,78.676777 C222.885978,59.7363567 237.060744,54.1153287 237.916118,53.7487399 C231.073128,53.6265437 208.711212,53.3821512 199.3021,60.836123 L199.3021,60.836123 Z" fill="#E35702" opacity="0.47"></path>
        <path d="M198.813315,74.6443004 C201.012848,89.0634591 213.110278,95.6620571 220.564249,97.8615898 C216.28738,95.7842534 205.289717,89.0634591 205.411913,77.4548144 C205.778502,54.72631 229.606773,53.8709362 229.606773,53.8709362 C219.586679,53.8709362 206.756072,54.9707025 199.179904,60.836123 C198.202334,65.1129921 197.957941,69.5120575 198.813315,74.6443004 Z" fill="url(#linearGradient-10)"></path>
        <path d="M114.009111,97.8615898 C109.732242,97.7393936 98.7345781,96.3952347 92.8691576,87.597104 C96.0462604,94.0735058 102.400466,97.8615898 109.610045,97.8615898 L114.009111,97.8615898 Z" fill="url(#linearGradient-11)"></path>
        <path d="M197.469156,74.6443004 C194.903035,57.7812165 205.900698,48.7386933 202.723595,29.3094879 C202.357007,27.1099553 201.501633,23.0774787 201.501633,23.0774787 C202.23481,25.0326188 202.845792,27.1099553 203.090184,29.3094879 C206.267287,48.7386933 196.124997,57.7812165 198.691119,74.6443004 C201.25724,91.2629918 216.531773,96.2730384 220.442053,97.8615898 C220.564249,97.8615898 200.27967,92.9737394 197.469156,74.6443004 L197.469156,74.6443004 Z" fill="url(#linearGradient-12)"></path>
        <path d="M107.410513,97.8615898 L58.5320086,97.8615898 C57.0656534,97.8615898 56.2102796,96.8840197 56.2102796,96.8840197 C57.5544385,97.006216 107.410513,97.8615898 107.410513,97.8615898 L107.410513,97.8615898 Z" fill="#EB7808"></path>
        <path d="M109.243456,97.8615898 L79.6719615,97.8615898 C76.2504663,97.8615898 74.5397186,97.2506085 74.5397186,97.2506085 L109.243456,97.8615898 L109.243456,97.8615898 Z" fill="#E35702"></path>
        <path d="M199.3021,60.836123 C208.711212,53.2599549 227.529436,53.0155624 238.038315,53.7487399 C238.038315,53.7487399 223.374763,53.3821512 213.232474,55.5816839 C202.967988,57.9034128 199.3021,60.836123 199.3021,60.836123 L199.3021,60.836123 Z" fill="#E35702"></path>
    </g>
</svg>

<svg viewBox="0 0 256 99" xmlns="http://www.w3.org/2000/svg" xmlns:xlink="http://www.w3.org/1999/xlink"><defs><linearGradient id="a" x1="-.944%" x2="100.193%" y1="34.58%" y2="93.74%"><stop offset="0%" stop-color="#FEEC7F"/><stop offset="100%" stop-color="#F3A21B"/></linearGradient><linearGradient id="b" x1="50%" x2="50%" y1="-26.499%" y2="107.049%"><stop offset="0%" stop-color="#FEEC7F"/><stop offset="19%" stop-color="#FEE97B"/><stop offset="39%" stop-color="#FCDF6E"/><stop offset="61%" stop-color="#FACF58"/><stop offset="82%" stop-color="#F6B93A"/><stop offset="100%" stop-color="#F3A21B"/></linearGradient><linearGradient id="c" x1="-31.443%" x2="46.858%" y1="50%" y2="50%"><stop offset="0%" stop-color="#FEEC7F"/><stop offset="11%" stop-color="#FDE373"/><stop offset="71%" stop-color="#F6B434"/><stop offset="100%" stop-color="#F3A21B"/></linearGradient><linearGradient id="d" x1="50.002%" x2="50.002%" y1="-9.408%" y2="98.339%"><stop offset="0%" stop-color="#FEEC7F"/><stop offset="61%" stop-color="#F7BC3F"/><stop offset="100%" stop-color="#F3A21B"/></linearGradient><linearGradient id="e" x1="50%" x2="50%" y1=".98%" y2="101.601%"><stop offset="0%" stop-color="#F9C32E"/><stop offset="52%" stop-color="#F19819"/><stop offset="100%" stop-color="#E96C04"/></linearGradient><linearGradient id="f" x1="-25.306%" x2="74.694%" y1="50%" y2="50%"><stop offset="0%" stop-color="#F7B425"/><stop offset="6%" stop-color="#F3A620"/><stop offset="21%" stop-color="#EC8816"/><stop offset="37%" stop-color="#E6720E"/><stop offset="55%" stop-color="#E26208"/><stop offset="74%" stop-color="#E05805"/><stop offset="100%" stop-color="#DF5504"/></linearGradient><linearGradient id="g" x1="50%" x2="50%" y1="-34.375%" y2="144.062%"><stop offset="0%" stop-color="#FEEC7F"/><stop offset="61%" stop-color="#F7BD40"/><stop offset="100%" stop-color="#F3A21B"/></linearGradient><linearGradient id="h" x1="50.354%" x2="50.354%" y1="-109.762%" y2="69.444%"><stop offset="0%" stop-color="#FEEC7F"/><stop offset="23%" stop-color="#FEEA7C"/><stop offset="42%" stop-color="#FCE271"/><stop offset="60%" stop-color="#FBD560"/><stop offset="78%" stop-color="#F8C347"/><stop offset="94%" stop-color="#F4AC28"/><stop offset="100%" stop-color="#F3A21B"/></linearGradient><linearGradient id="i" x1="50.006%" x2="50.006%" y1="7.134%" y2="136.776%" xlink:href="#e"/><linearGradient id="j" x1="75.144%" x2="25.511%" y1="18.361%" y2="69.806%"><stop offset="0%" stop-color="#E66A09"/><stop offset="100%" stop-color="#E66A09"/></linearGradient><linearGradient id="k" x1="50%" x2="50%" y1="-28.81%" y2="101.905%" xlink:href="#f"/><linearGradient id="l" x1="50.001%" x2="50.001%" y1="-14.918%" y2="65.637%"><stop offset="0%" stop-color="#F7B425"/><stop offset="35%" stop-color="#EF961A"/><stop offset="100%" stop-color="#DF5504"/></linearGradient></defs><path fill="url(#a)" d="M107.41 97.86H58.53c-7.58-.25-16.01-.86-23.1-2.2 -3.55-.62-6.85-1.47-10.03-2.33 -1.59-.49-3.06-.86-4.53-1.35 -2.68-.91-5.33-1.89-7.95-2.94 -1.23-.49-2.33-1.1-3.3-1.59 -2.08-1.1-3.92-1.96-5.26-2.82 -1.47-.86-2.57-1.59-3.3-2.08l-1.1-.74s.36.24 1.22.73c.73.48 1.83 1.09 3.29 1.95 1.46.85 3.29 1.71 5.37 2.68 2.07.97 4.52 1.95 7.2 2.81 1.34.48 2.68.97 4.15 1.34 1.46.48 2.93.85 4.52 1.22 3.17.73 6.47 1.46 10.02 2.07 6.96 1.22 14.54 1.95 22.11 2.19 3.54.24 49.48.97 49.48.97v0Z"/><path fill="url(#b)" d="M256 58.39c0-19.56-16.13-38.37-35.32-38.37 -14.79 0-31.53 1.83-63.55 42.52 -41.43 52.3-62.94 26.76-64.16 25.05 3.05 5.98 9.16 10.26 16.37 10.26h111.32c19.42 0 35.31-19.92 35.31-39.47Z"/><path fill="url(#c)" d="M109.48 97.86c-10.15 0-18.46-8.19-18.46-18.33 0-10.15 8.43-19.8 18.32-19.8 19.42 0 22.11 17.59 52.42 26.27 19.67 5.62 58.77 11.85 58.77 11.85H109.45Z"/><path fill="url(#d)" d="M220.56 97.86c-3.92-1.59-19.19-6.6-21.76-23.22 -2.57-16.87 7.57-25.91 4.39-45.34 -2.82-17.11-17.11-25.54-31.41-28.48 -7.34-1.47-15.4-1.1-23.59 1.83 -22.98 8.3-30.68 34.45-26.4 52.42 3.54 14.78 18.2 29.32 53.39 35.55 30.06 5.25 32.5 5.74 45.33 7.2Z"/><path fill="url(#e)" d="M198.81 74.64c-2.57-16.87 7.57-25.91 4.39-45.34 -.39-2.12-.92-4.2-1.59-6.24 -11.12 4.39-25.06 14.66-44.48 39.34 -41.43 52.42-62.94 26.88-64.16 25.17 3.05 5.98 9.28 10.26 16.49 10.26h111.19c-4.04-1.59-19.31-6.6-21.88-23.22v0Z"/><path fill="url(#f)" d="M126.59 65.84c5.01 9.28 26.02 24.31 93.96 32.01 -53.77-6.97-78.82-17.11-93.97-32.02Z"/><path fill="url(#g)" d="M58.65 97.86c-2.08 0-3.67-1.72-3.67-3.79 0-2.08 1.71-4.04 3.66-4.04 3.91 0 4.52 4.27 10.63 5.98C73.18 97.1 81 97.72 81 97.72l-22.37.12v0Z"/><path fill="url(#h)" d="M109.48 97.86c-5.26 0-10.27-2.45-13.69-5.99 -9.66-3.67-11.25-9.41-18.46-9.41 -4.04 0-7.34 3.91-7.34 7.94s3.29 7.45 7.33 7.45h44.47 -12.35v0Z"/><path fill="url(#i)" d="M239.99 26.74c-1.23-.98-2.57-1.84-3.79-2.57 -1.35-.74-2.82-1.47-4.53-1.96 -3.18-1.23-6.48-1.84-9.66-2.2h-1.35c-5.75 0-11.86.24-19.07 3.05 .73 1.95 1.34 4.03 1.58 6.23 2.19 13.44-2.08 22.11-4.04 31.64 9.4-7.58 27.49-7.83 37.63-7.21h1.09c1.09 0 2.07-.13 2.93-.37 9.89-2.57 10.5-17.6-.86-26.64v0Z"/><path opacity=".47" fill="#E35702" d="M199.3 60.83c-.86 4.15-1.23 8.67-.49 13.8 2.56 16.61 17.59 21.26 21.75 23.21h.12c6.72 0 12.95-2.45 18.2-6.24 -1.23-1.1-7.83-6.97-9.78-12.96 -6.24-18.95 7.94-24.57 8.79-24.93 -6.85-.13-29.21-.37-38.62 7.08v0Z"/><path fill="url(#j)" d="M198.81 74.64c2.19 14.41 14.29 21.01 21.75 23.21 -4.28-2.08-15.28-8.8-15.16-20.41 .36-22.73 24.19-23.59 24.19-23.59 -10.03 0-22.86 1.09-30.43 6.96 -.98 4.27-1.23 8.67-.37 13.8Z"/><path fill="url(#k)" d="M114 97.86c-4.28-.13-15.28-1.47-21.14-10.27 3.17 6.47 9.53 10.26 16.74 10.26h4.39Z"/><path fill="url(#l)" d="M197.46 74.64c-2.57-16.87 8.43-25.91 5.25-45.34 -.37-2.2-1.23-6.24-1.23-6.24 .73 1.95 1.34 4.03 1.58 6.23 3.17 19.42-6.97 28.47-4.4 45.33 2.56 16.61 17.84 21.62 21.75 23.21 .12 0-20.17-4.89-22.98-23.22v0Z"/><path fill="#EB7808" d="M107.41 97.86H58.53c-1.47 0-2.33-.98-2.33-.98 1.34.12 51.2.97 51.2.97v0Z"/><g fill="#E35702"><path d="M109.24 97.86H79.66c-3.43 0-5.14-.62-5.14-.62l34.7.61v0Z"/><path d="M199.3 60.83c9.4-7.58 28.22-7.83 38.73-7.09 0 0-14.67-.37-24.81 1.83 -10.27 2.32-13.94 5.25-13.94 5.25v0Z"/></g></svg>
